X: 305846
M: 2/4
L: 1/16
K: D
(ag) |\
(fg).f.e (dc).e.d | (B4 A2)Bc | d2cd f2(gf) | (ed).e.f e2(ag) |\
(fg).f.e (dc).e.d | B4 A2Bc | d2cd e2fe | d2f2d2 H|]


